sinaweibo.svg

<svg viewBox="0 0 24 24" xmlns="http://www.w3.org/2000/svg"><path d="M1.76506 15.6481C1.76506 18.443 5.40448 20.7082 9.8916 20.7082C14.3788 20.7082 18.0182 18.443 18.0182 15.6481C18.0182 12.8531 14.3788 10.588 9.8916 10.588C5.40448 10.588 1.76506 12.8531 1.76506 15.6481" fill="#ffffff"/><path d="M10.0837 20.2975C6.10983 20.6916 2.67909 18.8934 2.42075 16.2872C2.16248 13.6777 5.176 11.247 9.1465 10.8529C13.1204 10.4588 16.5512 12.257 16.8062 14.8632C17.0678 17.4727 14.0543 19.9067 10.0837 20.2975M18.0281 11.6377C17.6903 11.5351 17.4586 11.4689 17.634 11.0251C18.0182 10.0615 18.058 9.23025 17.6407 8.6342C16.8624 7.52147 14.7298 7.58111 12.2859 8.60435C12.2859 8.60435 11.5176 8.93885 11.7163 8.33283C12.0905 7.12413 12.0342 6.11407 11.4514 5.52792C10.1268 4.20002 6.59993 5.57758 3.57651 8.60107C1.31471 10.8629-2.84217e-14 13.2637-2.84217e-14 15.3401C-2.84217e-14 19.3073 5.08986 21.7215 10.0671 21.7215C16.5943 21.7215 20.9357 17.9297 20.9357 14.9195C20.939 13.0982 19.4057 12.0649 18.0281 11.6377" fill="#e6162d"/><path d="M22.363 4.37551C20.7867 2.62697 18.4619 1.96139 16.316 2.41836C15.8193 2.52438 15.5048 3.01448 15.6107 3.50787C15.7167 4.0046 16.2035 4.31922 16.7002 4.21321C18.2268 3.88868 19.8793 4.36225 20.9986 5.60408C22.1179 6.84591 22.4226 8.53816 21.9424 10.0217C21.7868 10.5052 22.0517 11.0218 22.5352 11.1774C23.0186 11.3331 23.5353 11.0682 23.6909 10.588L23.6909 10.5847C24.3665 8.50168 23.9393 6.12069 22.363 4.37551" fill="#ff9933"/><path d="M19.9422 6.56114C19.174 5.7101 18.0414 5.3855 16.9982 5.61071C16.571 5.70012 16.2995 6.12404 16.3889 6.55123C16.4816 6.97836 16.9022 7.24995 17.3261 7.15719C17.8361 7.04797 18.3924 7.20692 18.7666 7.62086C19.1408 8.03808 19.2435 8.60435 19.0812 9.10108C18.9488 9.51503 19.174 9.9621 19.5912 10.0979C20.0085 10.2303 20.4522 10.0051 20.588 9.58791C20.9158 8.57122 20.7105 7.41218 19.9422 6.56114" fill="#ff9933"/><path d="M10.3023 15.5752C10.1632 15.8137 9.85519 15.9262 9.6168 15.8269C9.37834 15.7309 9.30545 15.4626 9.44125 15.2308C9.58032 14.999 9.87507 14.8864 10.1102 14.9791C10.3486 15.0652 10.4347 15.3335 10.3023 15.5752M9.03393 17.1979C8.64977 17.8105 7.82523 18.0787 7.20596 17.7972C6.59665 17.5191 6.41448 16.8071 6.79864 16.2077C7.17945 15.6116 7.97421 15.3467 8.59021 15.605C9.21276 15.8732 9.41147 16.5786 9.03393 17.1979M10.4778 12.8597C8.58686 12.3663 6.45095 13.3101 5.62963 14.9758C4.79184 16.6747 5.60319 18.5622 7.51061 19.1782C9.49091 19.8173 11.8222 18.8371 12.6336 17.0058C13.435 15.2109 12.4349 13.3664 10.4778 12.8597" fill="#000000"/></svg>

<svg viewBox="0 0 24 24" xmlns="http://www.w3.org/2000/svg"><path d="M1.765 15.648c0 2.795 3.64 5.06 8.127 5.06s8.126-2.265 8.126-5.06c0-2.795-3.64-5.06-8.126-5.06-4.488 0-8.127 2.265-8.127 5.06" fill="#fff"/><path d="M10.084 20.297c-3.974.395-7.405-1.404-7.663-4.01-.259-2.61 2.755-5.04 6.726-5.434 3.973-.394 7.404 1.404 7.66 4.01.26 2.61-2.753 5.044-6.723 5.434m7.944-8.66c-.338-.102-.57-.168-.394-.612.384-.963.424-1.795.007-2.39-.779-1.114-2.911-1.054-5.355-.03 0 0-.768.334-.57-.272.375-1.209.318-2.219-.265-2.805C10.127 4.2 6.6 5.578 3.577 8.6 1.315 10.863 0 13.264 0 15.341c0 3.966 5.09 6.38 10.067 6.38 6.527 0 10.869-3.791 10.869-6.802.003-1.82-1.53-2.854-2.908-3.281" fill="#e6162d"/><path d="M22.363 4.376a6.347 6.347 0 0 0-6.047-1.958.918.918 0 0 0 .384 1.795A4.513 4.513 0 0 1 21 5.604a4.514 4.514 0 0 1 .943 4.418.918.918 0 0 0 1.748.566v-.003a6.338 6.338 0 0 0-1.327-6.21" fill="#f93"/><path d="M19.942 6.561a3.085 3.085 0 0 0-2.944-.95.794.794 0 0 0-.61.94.79.79 0 0 0 .938.606 1.511 1.511 0 0 1 1.755 1.944.793.793 0 0 0 1.507.487 3.092 3.092 0 0 0-.646-3.027" fill="#f93"/><path d="M10.302 15.575c-.139.239-.447.351-.685.252-.239-.096-.312-.364-.176-.596.14-.232.434-.345.67-.252.238.086.324.355.191.596m-1.268 1.623c-.384.613-1.209.88-1.828.6-.61-.279-.792-.99-.407-1.59.38-.596 1.175-.861 1.791-.603.623.268.821.974.444 1.593m1.444-4.338c-1.891-.494-4.027.45-4.848 2.116-.838 1.699-.027 3.586 1.88 4.202 1.98.64 4.312-.34 5.124-2.172.801-1.795-.2-3.64-2.156-4.146"/></svg>
